!!!COM: Mozart, Wolfgang Amadeus
!!!OTL: String Quartet No. 12 in B-flat Major
!!!OMD: Adagio
!!!OMV: 2
!!!SCT1: K<sup>1</sup> 172
!!!SCA: Chronologisch-thematisches Verzeichnis sämtlicher Tonwerke Wolfgang Amade Mozarts (L. von Köchel; 1862, 2/1905, 3/1937, 1947)
!!!SCT2: K<sup>6</sup> 172
!!!YOR: Breitkopf & Härtel Edition
!!!ENC: Frances Bennion
!!!CDT: 1756/1/27/-1791/12/5/
!!!OCY: Österreich
!!!YEC: Copyright (c) 1994, 2000 Center for Computer Assisted Research in the Humanities
!!!YEM: Rights to all derivative editions reserved.
!!!YEM: Refer to licensing agreement for further details.
!!!YEN: United States of America
**kern	**kern	**kern	**kern
*k[b-e-a-]	*k[b-e-a-]	*k[b-e-a-]	*k[b-e-a-]
*E-:	*E-:	*E-:	*E-:
*clefC	*clefF	*clefG	*clefG
*M4/4	*M4/4	*M4/4	*M4/4
8E-	16G	16r	4b-
.	16B-	16e-	.
8r	16r	16g	.
.	16B-	16e-	.
8E-	16e-	16r	4ee-
.	16B-	16g	.
8r	16r	16b-	.
.	16B-	16g	.
8F	16A-	16r	4ee-
.	16B-	16a-	.
8r	16r	16b-	.
.	16B-	16a-	.
8F	16a-	16r	8dd
.	16d	16a-	.
8r	16r	16b-	8r
.	16d	16a-	.
=2	=2	=2	=2
8BB-	16f	16r	4b-
.	16d	16f	.
8r	16r	16a-	.
.	16d	16f	.
8A-	16f	16r	4ff
.	16B-	16d	.
8r	16r	16b-	.
.	16B-	16d	.
8G	16f	16r	4ff
.	16d	16f	.
8r	16r	16b-	.
.	16d	16f	.
8GG	16e-	16r	8ee-
.	16g	16b-	.
8r	16r	16g	8r
.	16g	16b-	.
=3	=3	=3	=3
8E-	16e-	16r	8.b-
.	16B-	16g	.
8r	16r	16e-	.
.	16e-	16g	32cc
.	.	.	32dd
8E-	16B-	16r	16ee-
.	16e-	16g	16dd
8r	16r	16e-	16cc
.	16e-	16g	16b-
8D	16d	16r	8.b-
.	16f	16a-	.
8r	16r	16f	.
.	16d	16a-	32dd
.	.	.	32ee-
8D	16B-	16r	16ff
.	16f	16a-	16dd
8r	16r	16f	16cc
.	16d	16a-	16b-
=4	=4	=4	=4
8E-	16r	16r	16b-
.	16e-	16g	16gg
8F	16r	16r	16b-
.	16d	16a-	16aa-
8G	16r	16r	16b-
.	16e-	16b-	16bb-
8A-	16r	16r	16cc
.	16f	16a-	16aa-
8B-	16e-	16r	4gg
.	16g	16b-	.
8r	16r	16g	.
.	16g	16e-	.
8BB-	16d	16r	8ff
.	16f	16d	.
8r	16r	16f	8r
.	16f	16b-	.
=5	=5	=5	=5
8BB-	16d	16r	4.b-
.	16B-	16f	.
8r	16r	16b-	.
.	16B-	16f	.
8D	16d	16r	.
.	16B-	16f	.
8r	16r	16b-	16ff
.	16B-	16f	16dd
8E-	16A	16r	8.cc
.	16c	16f	.
8r	16r	16c	.
.	16c	16f	32a
.	.	.	32cc
8D	16B-	16r	8b-
.	16d	16f	.
8r	16r	16d	16r
.	16B-	16f	32ff
.	.	.	32dd
=6	=6	=6	=6
8E-	16A	16r	8.cc
.	16c	16f	.
8r	16r	16c	.
.	16c	16f	32a
.	.	.	32cc
8D	16B-	16r	8b-
.	16d	16f	.
8r	16r	16d	16.r
.	16f	16b-	.
.	.	.	32bb-
8AA	16cc	16r	8.ff
.	16f	16cc	.
8r	16r	16f	.
.	16f	16cc	16ee-
8BB-	16b-	16r	8dd
.	16f	16b-	.
8r	16r	16f	8r
.	16d	16b-	.
=7	=7	=7	=7
8BB	16B	16r	4.gg
.	16d	16g	.
8r	16r	16d	.
.	16d	16g	.
8BB	16g	16r	.
.	16d	16g	.
8r	16r	16dd	8ff
.	16d	16g	.
8C	16c	16r	8ee-
.	16e-	16cc	.
8r	16r	16g	4ee-
.	16g	16cc	.
8BB-	16e-	16r	.
.	16c	16g	.
8r	16r	16c	8ee
.	16c	16g	.
=8	=8	=8	=8
8AA	16f	16r	4.ff
.	16c	16f	.
8r	16r	16cc	.
.	16c	16f	.
8GG	16G	16r	.
.	16c	16g	.
8r	16r	16b-	8ee-
.	16c	16g	.
8FF#	16a	16r	8dd
.	16c	16a	.
8r	16r	16cc	8dd
.	16c	16a	.
8GG	16B-	16r	4r
.	16d	16b-	.
8r	16r	16g	.
.	16d	16b-	.
=9	=9	=9	=9
8EE-	16B-	16r	8.cc
.	16G	16g	.
8r	16r	16b-	.
.	16B-	16g	32ee-
.	.	.	32dd
8EE-	16G	16r	8cc
.	16B-	16g	.
8r	16r	16b-	8r
.	16B-	16g	.
8E-	16G	16r	8.cc
.	16B-	16g	.
8r	16r	16b-	.
.	16B-	16g	32ee-
.	.	.	32dd
8E-	16G	16r	8cc
.	16B-	16g	.
8r	16r	16b-	8r
.	16B-	16g	.
=10	=10	=10	=10
8F	16d	16r	4.ff
.	16f	16dd	.
8r	16r	16b-	.
.	16b-	16f	.
8F	16f	16r	.
.	16d	16b-	.
8r	16r	16f	16dd
.	16f	16d	16b-
8FF	16A	16r	2cc
.	16c	16e-	.
8r	16r	16f	.
.	16c	16e-	.
8FF	16A	16r	.
.	16c	16e-	.
8r	16r	16f	.
.	16A	16e-	.
=11	=11	=11	=11
8BB-	16B-	16r	4b-
.	16f	16d	.
8r	16r	16f	.
.	16f	16d	.
8A-	16c	16r	2.r
.	16a-	16cc	.
8r	16r	16a-	.
.	16d	16f	.
8G	16B-	16r	.
.	16g	16b-	.
8r	16r	16g	.
.	16B-	16e-	.
8F	16A-	16r	.
.	16f	16a-	.
8r	16d	16f	.
.	16A-	16d	.
=12	=12	=12	=12
8E-	16G	16r	4.b-
.	16B-	16e-	.
8r	16r	16g	.
.	16B-	16e-	.
8E-	16G	16r	.
.	16B-	16g	.
8r	16r	16b-	8ee-
.	16B-	16g	.
8E	16G	16r	8dd-
.	16B-	16g	.
8r	16r	16b-	8cc
.	16B-	16g	.
8E	16G	16r	4r
.	16B-	16g	.
8r	16r	16b-	.
.	16B-	16g	.
=13	=13	=13	=13
8F	16A-	16r	4.cc
.	16c	16f	.
8r	16r	16a-	.
.	16c	16f	.
8F	16A-	16r	.
.	16c	16a-	.
8r	16r	16cc	8ff
.	16c	16a-	.
8F#	16A	16r	8ee-
.	16c	16a	.
8r	16r	16cc	8dd
.	16c	16a	.
8F#	16A	16r	4r
.	16c	16a	.
8r	16r	16cc	.
.	16c	16a	.
=14	=14	=14	=14
8G	16B	16r	4.gg
.	16d	16b	.
8r	16r	16dd	.
.	16g	16b	.
8F	16d	16r	.
.	16B	16g	.
8r	16r	16d	8b
.	16d	16g	.
8E-	16e-	16r	8.cc
.	16c	16g	.
8r	16r	16e-	.
.	16c	16g	32ee-
.	.	.	32dd
8E-	16G	16r	8cc
.	16e-	16g	.
8r	16r	16c	8r
.	16e-	16g	.
=15	=15	=15	=15
8F	16f	16r	8.dd-
.	16F	16a-	.
8r	16r	16A-	.
.	16f	16a-	32ff
.	.	.	32ee-
8F	16A-	16r	8dd-
.	16f	16a-	.
8r	16r	16f	8r
.	16f	16a-	.
8G	16e-	16r	4.cc
.	16c	16e-	.
8r	16r	16g	.
.	16c	16e-	.
8GG	16e-	16r	.
.	16G	16e-	.
8r	16r	16f	8dd
.	16B	16G	.
=16	=16	=16	=16
8C	16c	16r	4cc
.	16e-	16G	.
8r	16r	16e-	.
.	16e-	16G	.
8BB-	16d-	16r	4r
.	16B-	16G	.
8r	16r	16e-	.
.	16G	16d-	.
8AA-	16A-	16r	4.ccc
.	16e-	16c	.
8r	16r	16e-	.
.	16e-	16a-	.
8A-	16c	16r	.
.	16a-	16e-	.
8r	16r	16a-	16aa-
.	16a-	16cc	16ff
=17	=17	=17	=17
8B-	16g	16r	4ee-
.	16b-	16g	.
8r	16r	16b-	.
.	16e-	16g	.
8BB-	16f	16r	8dd
.	16B-	16f	.
8r	16r	16b-	8r
.	16d	16f	.
8BB-	16e	16r	4.cc
.	16g	16e	.
8r	16r	16g	.
.	16c	16e	.
8AA-	16f	16r	.
.	16c	16f	.
8r	16r	16c	16a-
.	16c	16A-	16f
=18	=18	=18	=18
8BB-	16B-	16r	4e-
.	16e-	16G	.
8r	16r	16B-	.
.	16B-	16G	.
8BB-	16A-	16r	8d
.	16F	16B-	.
8r	16r	16B-	16.r
.	16G	16B-	.
.	.	.	32e-
8BB-	16G	16r	4e
.	16G	16B-	.
8r	16r	16B-	.
.	16G	16B-	.
8BB-	16A-	16r	8f
.	16D	16B-	.
8r	16r	16d	8r
.	16A-	16B-	.
=19	=19	=19	=19
8E-	16G	16r	4b-
.	16B-	16e-	.
8r	16r	16g	.
.	16B-	16e-	.
8E-	16G	16r	4ee-
.	16B-	16g	.
8r	16r	16b-	.
.	16B-	16g	.
8F	16A-	16r	4ee-
.	16B-	16a-	.
8r	16r	16b-	.
.	16B-	16a-	.
8F	16f	16r	8dd
.	16B-	16a-	.
8r	16r	16b-	8r
.	16d	16a-	.
=20	=20	=20	=20
8BB-	16f	16r	4b-
.	16A-	16d	.
8r	16r	16f	.
.	16A-	16d	.
8A-	16d	16r	4ff
.	16B-	16d	.
8r	16r	16b-	.
.	16B-	16d	.
8G	16f	16r	4ff
.	16B-	16d	.
8r	16r	16b-	.
.	16B-	16d	.
8G	16e-	16r	8ee-
.	16g	16e-	.
8r	16r	16b-	8r
.	16g	16e-	.
=21	=21	=21	=21
8E-	16G	16r	8.b-
.	16e-	16B-	.
8r	16r	16g	.
.	16e-	16B-	32cc
.	.	.	32dd
8E-	16B-	16r	16ee-
.	16e-	16B-	16dd
8r	16r	16g	16cc
.	16e-	16B-	16b-
8D	16f	16r	8.b-
.	16a-	16B-	.
8r	16r	16a-	.
.	16f	16B-	32dd
.	.	.	32ee-
8A-	16d	16r	16ff
.	16f	16d	16dd
8r	16r	16f	16cc
.	16f	16d	16b-
=22	=22	=22	=22
8G	16r	16r	16b-
.	16e-	16e-	16gg
8F	16r	16r	16b-
.	16B-	16d	16aa-
8E-	16r	16r	16b-
.	16G	16e-	16bb-
8AA-	16r	16r	16cc
.	16c	16f	16aa-
8BB-	16B-	16r	4gg
.	16g	16e-	.
8r	16r	16b-	.
.	16g	16e-	.
8BB-	16a-	16r	8ff
.	16f	16d	.
8r	16r	16b-	8r
.	16A-	16d	.
=23	=23	=23	=23
8E-	16G	16r	4.e-
.	16B-	16G	.
8r	16r	16B-	.
.	16B-	16G	.
8GG	16G	16r	.
.	16E-	16B-	.
8r	16r	16e-	16b-
.	16e-	16B-	16g
8AA-	16d	16r	8.f
.	16B-	16B-	.
8r	16r	16d	.
.	16F	16B-	32d
.	.	.	32f
8GG	16G	16r	8e-
.	16E-	16B-	.
8r	16r	16e-	16r
.	16e-	16B-	32b-
.	.	.	32g
=24	=24	=24	=24
8AA-	16d	16r	8.f
.	16B-	16B-	.
8r	16r	16d	.
.	16F	16B-	32d
.	.	.	32f
8GG	16G	16r	8e-
.	16E-	16B-	.
8r	16r	16e-	16.r
.	16B-	16g	.
.	.	.	32ee-
8D	16f	16r	8.b-
.	16d	16B-	.
8r	16r	16f	.
.	16f	16B-	16a-
8E-	16e-	16r	8g
.	16G	16B-	.
8r	16r	16e-	8r
.	16e-	16g	.
=25	=25	=25	=25
8A-	16c	16r	4.ccc
.	16a-	16e-	.
8r	16r	16ee-	.
.	16c	16e-	.
8G	16B-	16r	.
.	16g	16e	.
8r	16r	16cc	8bb-
.	16g	16e	.
8F	16c	16r	8aa-
.	16a-	16f	.
8r	16r	16cc	4aa-
.	16c	16f	.
8E-	16f	16r	.
.	16a-	16f	.
8r	16r	16cc	8aa
.	16c	16f	.
=26	=26	=26	=26
8D	16B-	16r	4.bb-
.	16d	16f	.
8r	16r	16b-	.
.	16B-	16f	.
8C	16F	16r	.
.	16c	16f	.
8r	16r	16cc	8aa-
.	16c	16f	.
8BB	16f	16r	8gg
.	16d	16f	.
8r	16r	16dd	8gg
.	16d	16f	.
8C	16e-	16r	4r
.	16G	16e-	.
8r	16r	16cc	.
.	16G	16e-	.
=27	=27	=27	=27
8AA-	16e-	16r	8.ff
.	16c	16e-	.
8r	16r	16cc	.
.	16c	16e-	32aa-
.	.	.	32gg
8AA-	16e-	16r	8ff
.	16c	16e-	.
8r	16r	16cc	8r
.	16c	16e-	.
8AA-	16E-	16r	8.ff
.	16c	16e-	.
8r	16r	16c	.
.	16C	16e-	32aa-
.	.	.	32gg
8AA-	16E-	16r	8ff
.	16C	16e-	.
8r	16r	16c	8r
.	16c	16e-	.
=28	=28	=28	=28
8BB-	16B-	16r	4.bb-
.	16e-	16g	.
8r	16r	16e-	.
.	16e-	16g	.
8BB-	16g	16r	.
.	16b-	16g	.
8r	16r	16b-	16gg
.	16e-	16g	16ee-
8BB-	16d	16r	2ff
.	16f	16a-	.
8r	16r	16f	.
.	16f	16d	.
8BB-	16d	16r	.
.	16B-	16a-	.
8r	16r	16f	.
.	16A-	16d	.
=29	=29	=29	=29
8E-	16G	16r	4ee-
.	16B-	16g	.
8r	16r	16b-	.
.	16g	16ee-	.
8A-	16e-	16r	2.r
.	16a-	16cc	.
8r	16r	16a-	.
.	16c	16f	.
8B-	16B-	16r	.
.	16G	16b-	.
8r	16r	16g	.
.	16B-	16e-	.
8BB-	16A-	16r	.
.	16F	16a-	.
8r	16r	16f	.
.	16A-	16d	.
=30	=30	=30	=30
8E-	16G	16r	4.ee-
.	16B-	16g	.
8r	16r	16b-	.
.	16e-	16g	.
8A-	16c	16r	.
.	16a-	16cc	.
8r	16r	16b-	16dd
.	16f	16a-	16cc
8B-	16a-	16r	8b-
.	16g	16g	.
8r	16r	16f	16a-
.	16B-	16e-	16g
8BB-	16g	16r	8a-
.	16f	16f	.
8r	16r	16e-	16g
.	16A-	16d	16f
=31	=31	=31	=31
4.E-	4A-	4d	4f
.	8G	8e-	8e-
8BB-	8A-	24d	24f
.	.	24e-	24g
.	.	24f	24a-
[4EE-	4D	4f	4a-
8EE-]	8E-	8e-	8g
8r	8r	8r	8r
==	==	==	==
*-	*-	*-	*-
!!!RWG1: This file contains only pitch and duration data.
!!!RWG2: Transposing instruments are not transposed.
!!!RWG3: Spines may have incompatible meters.
!!!RWG4: Durations of rests and tied notes may be interpreted.
!!!RWG: Key is interpreted using the Humdrum key tool.
!!!AFT: stage1
!!!END: 1997/04/15
!!!KEY: 2228834979
!!!EMD: Converted from MuseData to Humdrum Dec 16, 2000, by Andreas Kornstaedt using muse2kern.
!!!EMD: Manual editing by Craig Sapp, Nov 2001
